X:1
T:Variations on Canon in D
T:Variations in Canon in D
T:Music by Johann Pachelbel/ arrangement by Rubén Guzmán P
C:Music by Johann Pachelbel/ arrangement by Rubén Guzmán P
%%score { 1 | 2 }
L:1/8
Q:1/4=80
M:4/4
K:D
V:1 treble nm="Piano" snm="Pno."
V:2 bass 
V:1
!p! F8 | E4 C4 | D6 B,D | C4 A,3 z/ A,/ | B,6 G,B, | A,4 F,4 | B,3 B,3 B,2 | C4!<(! D2 E2!<)! | %8
!mp! F4 F3 F | E4 AGFE | D6 B,D | C4 A,3 z/ A,/ | B,6 G,B, | A,4 F,4 | B,3 B,3 B,2 | %15
 [A,C]4!<(! D2 [CE]2!<)! |!mf! d2 c d2 D2 C- | C2 A2 E F2 D- | D2 d2 c B2 A- | A2 f2 a b2 g- | %20
 g2 f e2{/f} g2 f- | f2 e2 d c2 B- | B2 A2 G F2 E- | E2 G2 [EG]FED- | D2 E2 F G2 A- | %25
 A2 E2 A2 GF- | F2 B2 A G2 A- | A2 G2 F2 ED- | D2 B,2 B c2 d- | d2 c2 B A2 G- | G2 F2 E B2 A- | %31
 A2 B2 A2 G2 | [dd']2 [cc'] [dd']2 [Dd]2 [Cc]- | [Cc]2 [Aa]2 [Ee] [Ff]2 [Dd]- | %34
 [Dd]2 [dd']2 [cc'] [Bb]2 [Aa]- | [Aa]2 [ff']2 [aa'] [bb']2 [gg']- | %36
 [gg']2 [ff'] [ee']2{/[ff']} [gf']2 [ff']- | [ff']2 [ee']2 [dd'] [cc']2 [Bb]- | %38
 [Bb]2 [Aa]2 [Gg] [Ff]2 [Ee]- | [Ee]2 [Gg]2 [Gg][Ff][Ee][Dd]- | [Dd]2 [Ee]2 [Ff] [Gg]2 [Aa]- | %41
 [Aa]2 [Ee]2 [Aa]2 [Gg][Ff]- | [Ff]2 [Bb]2 [Aa] [Gg]2 [Aa]- | [Aa]2 [Gg]2 [Ff]2 [Ee][Dd]- | %44
 [Dd]2 [B,B]2 [Bb] [cc']2 [dd']- | [dd']2 [cc']2 [Bb] [Aa]2 [Gg]- | [Gg]2 [Ff]2 [Ee] [Bb]2 [Aa]- | %47
 [Aa]2 [Bb]2 [Aa]4 |!f! d'2 a/b/c'/e'/ d'3 d'/c'/ | d'2 a/c'/e'/d'/ c'ega | b4- bBdg | a4 fe f2 | %52
 gaab b3 b/a/ | bg a4 ea | b4 gdgb |!<(! [eac']4 [ead']2 [eac'e']2!<)! | %56
 [aa'][ff']/[gg']/ [aa'][ff']/[gg']/ [aa']/[Aa]/[Bb]/[cc']/ [dd']/[ee']/[ff']/[gg']/ | %57
 [ff'][dd']/[ee']/ [ff'][Ff]/[Gg]/ [Aa]/[Bb]/[Aa]/[Gg]/ [Aa]/[Ff]/[Gg]/[Aa]/ | %58
 [Gg][Bb]/[Aa]/ [Gg][Ff]/[Ee]/ [Ff]/[Ee]/[Dd]/[Ee]/ [Ff]/[Gg]/[Aa]/[Gb]/ | %59
 [Gg][Bb]/[Aa]/ [Bb][cc']/[dd']/- [dd']/[Aa]/[Bb]/[cc']/ [dd']/[ee']/[ff']/[gg']/ | %60
 [ff'][dd']/[ee']/ [ff'][ee']/[dd']/ [ee']/[cc']/[dd']/[ee']/ [ff']/[ee']/[dd']/[cc']/ | %61
 [dd'][Bb]/[cc']/ [dd'][Dd]/[Ee]/ [Ff]/[Gg]/[Ff]/[Ee]/ [Ff]/[dd']/[cc']/[dd']/ | %62
 [Bb][dd']/[cc']/ [Bb][Aa]/[Gg]/ [Aa]/[Gg]/[Ff]/[Gg]/ [Aa]/[Bb]/[cc']/[dd']/ | %63
 [Bb][dd']/[cc']/ [dd'][cc']/[Bb]/ [cc']/[dd']/[ee']/[dd']/ [cc']/[dd']/[Bb]/[cc']/ | %64
 [dd']3/2[dd']3/2[dd'] [cc']3/2[cc']3/2[cc'] | [Bb]3/2[Bb]3/2[Bb] [dd']3/2[dd']3/2[dd'] | %66
 [Dd]3/2[Dd]3/2[Dd] [Dd]3/2[Dd]3/2[Dd] | [Dd]3/2[Dd]3/2[Dd] [Ee]3/2[Ee]3/2[Ee] | %68
 z [Aa]2 [Aa]2 [Aa]2 [Aa]- | [Aa] [Ff]2 [Ff]2 [Aa]2 [Aa]- | [Aa] [Gg]2 [Gg]2 [Ff]2 [Ff]- | %71
 [Ff] [Gg]2 [Gg]2 [cc']3 | [dd']2 [ee'][dd']/[cc']/- [cc']2 [dd'][cc'] | %73
 [Bb]2 [Aa][Bb]/[cc']/- [cc']2 [ff'][ee'] | [dd']2 [ee'][gg']/[ff']/- [ff'][Aa][dd'][ff'] | %75
 [dd'][gg'][ff'][gg'] [ee'][cc'][Bb][cc'] | [dd']2 [ee'][dd'] [cc']2 [dd'][cc'] | %77
 [Bb]2 [Aa][Bb] [cc']2 [ff'][ee'] | [dd'][dd'][ee'][gg'] [ff'][Aa][dd'][ff'] | %79
 [dd'][gg'][ff'][gg'] [ee'][cc'][Bb][cc'] |!ff! [ff']2 [ff'][ff']/[ff']/- [ff'][gg'][ff'][ee'] | %81
 [dd']2 [dd'][dd']/[dd']/- [dd'][ee'][dd'][cc'] | [Bb]4 [dd']4 | %83
 [dd'][=c=c']/[Bb][cc'] [^c^c']2- [cc']/ [Aa]2 | [Aa]2 [aa'][aa']/[aa']/- [aa'][bb'][aa'][gg'] | %85
 [ff']2 [ff'][ff']/[ff']/- [ff'][gg'][ff'][ee'] | [dd'][=c=c'][Bb][cc'] [dd']2- [dd'][Aa] | %87
 [Gg]2 [dd']2 [cc']2 [Aa]2 | [df]2 [df][df]/[ce]/- [ce]2 [ce]2 | %89
 [Bd]2 [Bd][Bd]/[Ac]/- [Ac]2 A/B/c/[GB]/- | [GB]2 z/ G/B/[FA]/- [FA]2 D/F/A/[GB]/- | %91
 [GB]2 [GB][GB]/[Ac]/- [Ac]2 [Ac]2 | [ff']2 [ff'][ff']/[ee']/- [ee']2 [gg']/[ff']/[ee']/[dd']/- | %93
 [dd']2- [dd']/[Bb]/[dd']/[cc']/- [cc']2 [Aa]/[Ff]/[Gg]/[Aa]/ | %94
 [Bb][Bb]>[cc'][Bb]/[Aa]/- [Aa]2 [Aa]/[Dd]/[Ff]/[Aa]/ |"_rit." [Bb]2 [Bb][Bb]/[cc']/- [cc']4 | %96
 z/4 A,/4C/4E/4A,/4C/4E/4A/4 C/4E/4A/4c/4E/4A/4c/4e/4 A/4c/4e/4a/4c/4e/4a/4c'/4 e/4a/4c'/4e'/4a/4c'/4e'/4f'/4 | %97
 !fermata![c'c'']8 | [e'a']/f'/d'/a/ [ea]/f/d/A/ [EA]/F/D/A,/ [E,A,]/F,/D,/A,,/ | z8 | [dfd']8 |] %101
V:2
!ped! D,A,DA, DA,DA,!ped-up! |!ped! A,,E,A,E, A,E,A,E,!ped-up! |!ped! B,,F,B,F, B,F,B,F,!ped-up! | %3
!ped! F,,C,F,C, F,C,F,C,!ped-up! |!ped! G,,D,G,D, G,D,G,D,!ped-up! | %5
!ped! D,,A,,D,A,, D,A,,D,A,,!ped-up! |!ped! G,,D,G,D, G,D,G,D,!ped-up! | %7
!ped! A,,E,A,E, A,E,A,E,!ped-up! |!ped! D,A,DA, DA,DA,!ped-up! |!ped! A,,E,A,E, A,E,A,E,!ped-up! | %10
!ped! B,,F,B,F, B,F,B,F,!ped-up! |!ped! F,,C,F,C, F,C,F,C,!ped-up! | %12
!ped! G,,D,G,D, G,D,G,D,!ped-up! |!ped! D,,A,,D,A,, D,A,,D,A,,!ped-up! | %14
!ped! G,,D,G,D, G,D,G,D,!ped-up! |!ped! A,,E,A,E, A,E,A,E,!ped-up! |!ped! D,A,DA, DA,DA,!ped-up! | %17
!ped! A,,E,A,E, A,E,A,E,!ped-up! |!ped! B,,F,B,F, B,F,B,F,!ped-up! | %19
!ped! F,,C,F,C, F,C,F,C,!ped-up! |!ped! G,,D,G,D, G,D,G,D,!ped-up! | %21
!ped! D,,A,,D,A,, D,A,,D,A,,!ped-up! |!ped! G,,D,G,D, G,D,G,D,!ped-up! | %23
!ped! A,,E,A,E, A,E,A,E,!ped-up! |!ped! D,A,DA, DA,DA,!ped-up! |!ped! A,,E,A,E, A,E,A,E,!ped-up! | %26
!ped! B,,F,B,F, B,F,B,F,!ped-up! |!ped! F,,C,F,C, F,C,F,C,!ped-up! | %28
!ped! G,,D,G,D, G,D,G,D,!ped-up! |!ped! D,,A,,D,A,, D,A,,D,A,,!ped-up! | %30
!ped! G,,D,G,D, G,D,G,D,!ped-up! |!ped! A,,E,A,E, A,E,A,E,!ped-up! |!ped! D,A,DA, DA,DA,!ped-up! | %33
!ped! A,,E,A,E, A,E,A,E,!ped-up! |!ped! B,,F,B,F, B,F,B,F,!ped-up! | %35
!ped! F,,C,F,C, F,C,F,C,!ped-up! |!ped! G,,D,G,D, G,D,G,D,!ped-up! | %37
!ped! D,,A,,D,A,, D,A,,D,A,,!ped-up! |!ped! G,,D,G,D, G,D,G,D,!ped-up! | %39
!ped! A,,E,A,E, A,E,A,E,!ped-up! |!ped! D,A,DA,!ped! DA,DA,!ped-up! | %41
!ped! A,,E,A,E, A,E,A,E,!ped-up! |!ped! B,,F,B,F, B,F,B,F,!ped-up! | %43
!ped! F,,C,F,C, F,C,F,C,!ped-up! |!ped! G,,D,G,D, G,D,G,D,!ped-up! | %45
!ped! D,,A,,D,A,, D,A,,D,A,,!ped-up! |!ped! G,,D,G,D, G,D,G,D,!ped-up! | %47
!ped! A,,E,A,E, A,E,A,E,!ped-up! |!ped! D,A,DA, DA,DA,!ped-up! |!ped! A,,E,A,E, A,E,A,E,!ped-up! | %50
!ped! B,,F,B,F, B,F,B,F,!ped-up! |!ped! F,,C,F,C, F,C,F,C,!ped-up! | %52
!ped! G,,D,G,D, G,D,G,D,!ped-up! |!ped! D,,A,,D,A,, D,A,,D,A,,!ped-up! | %54
!ped! G,,D,G,D, G,D,G,D,!ped-up! |!ped! A,,E,A,E, A,E,A,E,!ped-up! | %56
!ped! D,/A,/D/A,/ D/A,/D/A,/!ped-up!!ped! A,,/E,/A,/E,/ A,/E,/A,/E,/!ped-up! | %57
!ped! B,,/F,/B,/F,/ B,/F,/B,/F,/!ped-up!!ped! F,,/C,/F,/C,/ F,/C,/F,/C,/!ped-up! | %58
!ped! G,,/D,/G,/D,/ G,/D,/G,/D,/!ped-up!!ped! D,,/A,,/D,/A,,/ D,/A,,/D,/A,,/!ped-up! | %59
!ped! G,,/D,/G,/D,/ G,/D,/G,/D,/!ped-up!!ped! A,,/E,/A,/E,/ A,/E,/A,/E,/!ped-up! | %60
!ped! D,/A,/D/A,/ D/A,/D/A,/!ped-up!!ped! A,,/E,/A,/E,/ A,/E,/A,/E,/!ped-up! | %61
!ped! B,,/F,/B,/F,/ B,/F,/B,/F,/!ped-up!!ped! F,,/C,/F,/C,/ F,/C,/F,/C,/!ped-up! | %62
!ped! G,,/D,/G,/D,/ G,/D,/G,/D,/!ped-up!!ped! D,,/A,,/D,/A,,/ D,/A,,/D,/A,,/!ped-up! | %63
!ped! G,,/D,/G,/D,/ G,/D,/G,/D,/!ped-up!!ped! A,,/E,/A,/E,/ A,/E,/A,/E,/!ped-up! | %64
!ped! D,/A,/D/A,/ D/A,/D/A,/!ped-up!!ped! A,,/E,/A,/E,/ A,/E,/A,/E,/!ped-up! | %65
!ped! B,,/F,/B,/F,/ B,/F,/B,/F,/!ped-up!!ped! F,,/C,/F,/C,/ F,/C,/F,/C,/!ped-up! | %66
!ped! G,,/D,/G,/D,/ G,/D,/G,/D,/!ped-up!!ped! D,,/A,,/D,/A,,/ D,/A,,/D,/A,,/!ped-up! | %67
!ped! G,,/D,/G,/D,/ G,/D,/G,/D,/!ped-up!!ped! A,,/E,/A,/E,/ A,/E,/A,/E,/!ped-up! | %68
!ped! D,/A,/D/A,/ D/A,/D/A,/!ped-up!!ped! A,,/E,/A,/E,/ A,/E,/A,/E,/!ped-up! | %69
!ped! B,,/F,/B,/F,/ B,/F,/B,/F,/!ped-up!!ped! F,,/C,/F,/C,/ F,/C,/F,/C,/!ped-up! | %70
!ped! G,,/D,/G,/D,/ G,/D,/G,/D,/!ped-up!!ped! D,,/A,,/D,/A,,/ D,/A,,/D,/A,,/!ped-up! | %71
!ped! G,,/D,/G,/D,/ G,/D,/G,/D,/!ped-up!!ped! A,,/E,/A,/E,/ A,/E,/A,/E,/!ped-up! | %72
!ped! D,/A,/D/A,/ D/A,/D/A,/!ped-up!!ped! A,,/E,/A,/E,/ A,/E,/A,/E,/!ped-up! | %73
!ped! B,,/F,/B,/F,/ B,/F,/B,/F,/!ped-up!!ped! F,,/C,/F,/C,/ F,/C,/F,/C,/!ped-up! | %74
!ped! G,,/D,/G,/D,/ G,/D,/G,/D,/!ped-up!!ped! D,,/A,,/D,/A,,/ D,/A,,/D,/A,,/!ped-up! | %75
!ped! G,,/D,/G,/D,/ G,/D,/G,/D,/!ped-up!!ped! A,,/E,/A,/E,/ A,/E,/A,/E,/!ped-up! | %76
!ped! D,/A,/D/A,/ D/A,/D/A,/!ped-up!!ped! A,,/E,/A,/E,/ A,/E,/A,/E,/!ped-up! | %77
!ped! B,,/F,/B,/F,/ B,/F,/B,/F,/!ped-up!!ped! F,,/C,/F,/C,/ F,/C,/F,/C,/!ped-up! | %78
!ped! G,,/D,/G,/D,/ G,/D,/G,/D,/!ped-up!!ped! D,,/A,,/D,/A,,/ D,/A,,/D,/A,,/!ped-up! | %79
!ped! G,,/D,/G,/D,/ G,/D,/G,/D,/!ped-up!!ped! A,,/E,/A,/E,/ A,/E,/A,/E,/!ped-up! | %80
!ped! D,/A,/D/A,/ D/A,/D/A,/!ped-up!!ped! A,,/E,/A,/E,/ A,/E,/A,/E,/!ped-up! | %81
!ped! B,,/F,/B,/F,/ B,/F,/B,/F,/!ped-up!!ped! F,,/C,/F,/C,/ F,/C,/F,/C,/!ped-up! | %82
!ped! G,,/D,/G,/D,/ G,/D,/G,/D,/!ped-up!!ped! D,,/A,,/D,/A,,/ D,/A,,/D,/A,,/!ped-up! | %83
!ped! G,,/D,/G,/D,/ G,/D,/G,/D,/!ped-up!!ped! A,,/E,/A,/E,/ A,/E,/A,/E,/!ped-up! | %84
!ped! D,/A,/D/A,/ D/A,/D/A,/!ped-up!!ped! A,,/E,/A,/E,/ A,/E,/A,/E,/!ped-up! | %85
!ped! B,,/F,/B,/F,/ B,/F,/B,/F,/!ped-up!!ped! F,,/C,/F,/C,/ F,/C,/F,/C,/!ped-up! | %86
!ped! G,,/D,/G,/D,/ G,/D,/G,/D,/!ped-up!!ped! D,,/A,,/D,/A,,/ D,/A,,/D,/A,,/!ped-up! | %87
!ped! G,,/D,/G,/D,/ G,/D,/G,/D,/!ped-up!!ped! A,,/E,/A,/E,/ A,/E,/A,/E,/!ped-up! | %88
!ped! D,/A,/D/A,/ D/A,/D/A,/!ped-up!!ped! A,,/E,/A,/E,/ A,/E,/A,/E,/!ped-up! | %89
!ped! B,,/F,/B,/F,/ B,/F,/B,/F,/!ped-up!!ped! F,,/C,/F,/C,/ F,/C,/F,/C,/!ped-up! | %90
!ped! G,,/D,/G,/D,/ G,/D,/G,/D,/!ped-up!!ped! D,,/A,,/D,/A,,/ D,/A,,/D,/A,,/!ped-up! | %91
!ped! G,,/D,/G,/D,/ G,/D,/G,/D,/!ped-up!!ped! A,,/E,/A,/E,/ A,/E,/A,/E,/!ped-up! | %92
!ped! D,/A,/D/A,/ D/A,/D/A,/!ped-up!!ped! A,,/E,/A,/E,/ A,/E,/A,/E,/!ped-up! | %93
!ped! B,,/F,/B,/F,/ B,/F,/B,/F,/!ped-up!!ped! F,,/C,/F,/C,/ F,/C,/F,/C,/!ped-up! | %94
!ped! G,,/D,/G,/D,/ G,/D,/G,/D,/!ped-up!!ped! D,,/A,,/D,/A,,/ D,/A,,/D,/A,,/!ped-up! | %95
!ped! G,,/D,/G,/D,/ G,/D,/G,/D,/ A,,/E,/A,/C/ E/A/c/e/!ped-up! | [A,,,A,,]8 | [A,,,A,,]8 | %98
 [D,,D,]8 | [D,,,D,,D,F,A,]8- | [D,,,D,,D,F,A,]8 |] %101

